Newaita/actions/16/format-list-unordered.svg

<?xml version="1.0" encoding="UTF-8"?>
<svg xmlns="http://www.w3.org/2000/svg" xmlns:xlink="http://www.w3.org/1999/xlink" width="16pt" height="16pt" viewBox="0 0 16 16" version="1.1">
<g id="surface1">
<path style=" stroke:none;fill-rule:nonzero;fill:rgb(25.882354%,25.882354%,25.882354%);fill-opacity:1;" d="M 4.300781 2.109375 L 14.222656 2.109375 C 14.40625 2.109375 14.554688 2.257812 14.554688 2.441406 L 14.554688 2.769531 C 14.554688 2.953125 14.40625 3.101562 14.222656 3.101562 L 4.300781 3.101562 C 4.117188 3.101562 3.96875 2.953125 3.96875 2.769531 L 3.96875 2.441406 C 3.96875 2.257812 4.117188 2.109375 4.300781 2.109375 Z M 4.300781 2.109375 "/>
<path style=" stroke:none;fill-rule:nonzero;fill:rgb(100%,65.490198%,14.901961%);fill-opacity:1;" d="M 2.148438 1.777344 C 2.605469 1.777344 2.976562 2.148438 2.976562 2.605469 C 2.976562 3.0625 2.605469 3.433594 2.148438 3.433594 C 1.691406 3.433594 1.324219 3.0625 1.324219 2.605469 C 1.324219 2.148438 1.691406 1.777344 2.148438 1.777344 Z M 2.148438 1.777344 "/>
<path style=" stroke:none;fill-rule:nonzero;fill:rgb(25.882354%,25.882354%,25.882354%);fill-opacity:1;" d="M 4.300781 5.746094 L 14.222656 5.746094 C 14.40625 5.746094 14.554688 5.894531 14.554688 6.078125 L 14.554688 6.410156 C 14.554688 6.59375 14.40625 6.738281 14.222656 6.738281 L 4.300781 6.738281 C 4.117188 6.738281 3.96875 6.59375 3.96875 6.410156 L 3.96875 6.078125 C 3.96875 5.894531 4.117188 5.746094 4.300781 5.746094 Z M 4.300781 5.746094 "/>
<path style=" stroke:none;fill-rule:nonzero;fill:rgb(47.058824%,56.470591%,61.176473%);fill-opacity:1;" d="M 2.148438 5.417969 C 2.605469 5.417969 2.976562 5.789062 2.976562 6.242188 C 2.976562 6.699219 2.605469 7.070312 2.148438 7.070312 C 1.691406 7.070312 1.324219 6.699219 1.324219 6.242188 C 1.324219 5.789062 1.691406 5.417969 2.148438 5.417969 Z M 2.148438 5.417969 "/>
<path style=" stroke:none;fill-rule:nonzero;fill:rgb(25.882354%,25.882354%,25.882354%);fill-opacity:1;" d="M 4.300781 13.023438 L 14.222656 13.023438 C 14.40625 13.023438 14.554688 13.171875 14.554688 13.355469 L 14.554688 13.6875 C 14.554688 13.867188 14.40625 14.015625 14.222656 14.015625 L 4.300781 14.015625 C 4.117188 14.015625 3.96875 13.867188 3.96875 13.6875 L 3.96875 13.355469 C 3.96875 13.171875 4.117188 13.023438 4.300781 13.023438 Z M 4.300781 13.023438 "/>
<path style=" stroke:none;fill-rule:nonzero;fill:rgb(25.882354%,25.882354%,25.882354%);fill-opacity:1;" d="M 2.148438 12.695312 C 2.605469 12.695312 2.976562 13.0625 2.976562 13.519531 C 2.976562 13.976562 2.605469 14.347656 2.148438 14.347656 C 1.691406 14.347656 1.324219 13.976562 1.324219 13.519531 C 1.324219 13.0625 1.691406 12.695312 2.148438 12.695312 Z M 2.148438 12.695312 "/>
<path style=" stroke:none;fill-rule:nonzero;fill:rgb(25.882354%,25.882354%,25.882354%);fill-opacity:1;" d="M 4.300781 9.386719 L 14.222656 9.386719 C 14.40625 9.386719 14.554688 9.535156 14.554688 9.71875 L 14.554688 10.046875 C 14.554688 10.230469 14.40625 10.378906 14.222656 10.378906 L 4.300781 10.378906 C 4.117188 10.378906 3.96875 10.230469 3.96875 10.046875 L 3.96875 9.71875 C 3.96875 9.535156 4.117188 9.386719 4.300781 9.386719 Z M 4.300781 9.386719 "/>
<path style=" stroke:none;fill-rule:nonzero;fill:rgb(55.29412%,43.137255%,38.82353%);fill-opacity:1;" d="M 2.148438 9.054688 C 2.605469 9.054688 2.976562 9.425781 2.976562 9.882812 C 2.976562 10.339844 2.605469 10.710938 2.148438 10.710938 C 1.691406 10.710938 1.324219 10.339844 1.324219 9.882812 C 1.324219 9.425781 1.691406 9.054688 2.148438 9.054688 Z M 2.148438 9.054688 "/>
</g>
</svg>

<svg xmlns="http://www.w3.org/2000/svg" width="16pt" height="16pt" viewBox="0 0 16 16"><path d="M4.3 2.11h9.923c.183 0 .332.148.332.331v.329a.332.332 0 0 1-.332.332H4.3a.332.332 0 0 1-.332-.332V2.44c0-.183.148-.332.332-.332zm0 0" fill="#424242"/><path d="M2.148 1.777a.829.829 0 0 1 0 1.657.825.825 0 0 1-.824-.829c0-.457.367-.828.824-.828zm0 0" fill="#ffa726"/><path d="M4.3 5.746h9.923c.183 0 .332.149.332.332v.332a.328.328 0 0 1-.332.328H4.3a.328.328 0 0 1-.332-.328v-.332c0-.183.148-.332.332-.332zm0 0" fill="#424242"/><path d="M2.148 5.418c.457 0 .829.371.829.824a.825.825 0 1 1-.828-.824zm0 0" fill="#78909c"/><path d="M4.3 13.023h9.923c.183 0 .332.149.332.332v.332a.33.33 0 0 1-.332.329H4.3a.33.33 0 0 1-.332-.329v-.332c0-.183.148-.332.332-.332zm0 0M2.148 12.695a.825.825 0 1 1 0 1.653.825.825 0 0 1-.824-.828c0-.457.367-.825.824-.825zm0 0M4.3 9.387h9.923c.183 0 .332.148.332.332v.328a.332.332 0 0 1-.332.332H4.3a.332.332 0 0 1-.332-.332v-.328c0-.184.148-.332.332-.332zm0 0" fill="#424242"/><path d="M2.148 9.055a.829.829 0 0 1 0 1.656.825.825 0 0 1-.824-.828c0-.457.367-.828.824-.828zm0 0" fill="#8d6e63"/></svg>
